X: 19006
T: Inspector Hector
R: slip jig
M: 9/8
K: Bdorian
~f3 fec B2E|FAA A2F Bce|1 ~f3 fec B3|
BcB BAF Ece:|2 f/g/ag fec e2c|d2c BAF EFA||
~B3 BAB cBA|~B3 B2c dcf|~B3 BAB cBA|
[1BcB BAF EFA:|2 BcB BAF Eag||"Last time" BcB BAF E3||

